rospo-icon-theme-classic-common/22x22/apps/com.github.danrabbit.harvey.svg

<svg height="22" width="22" xmlns="http://www.w3.org/2000/svg"><path d="m5.95 3v16h14.05c.554 0 1-.446 1-1v-14c0-.554-.446-1-1-1z" fill="#23c2c2"/><path d="m2 3c-.554 0-1 .446-1 1v14c0 .554.446 1 1 1h4v-16z" fill="#e4e4e4"/><path d="m2 3c-.554 0-1 .446-1 1v .5c0-.554.446-1 1-1h18c .554 0 1 .446 1 1v-.5c0-.554-.446-1-1-1z" fill="#fff" opacity=".2"/><path d="m1 18v .5c0 .554.446 1 1 1h18c .554 0 1-.446 1-1v-.5c0 .554-.446 1-1 1h-18c-.554 0-1-.446-1-1z" opacity=".2"/><circle cx="14" cy="11" fill="#3f3f3f" r="5"/><path d="m304.9375 131.9375-4.9375 4.9375-1.9375-1.9375-2.125 2.125 3 3 1.0625 1.0625 1.0625-1.0625 6-6z" opacity=".2" transform="matrix(.4494382 0 0 .43537415 -121.505617 -47.942176)"/><path d="m304.9375 131.9375-4.9375 4.9375-1.9375-1.9375-2.125 2.125 3 3 1.0625 1.0625 1.0625-1.0625 6-6z" fill="#fff" transform="matrix(.4494382 0 0 .43537415 -121.505617 -48.442176)"/><path d="m6 3h .5v16h-.5z" opacity=".1"/></svg>

<svg xmlns="http://www.w3.org/2000/svg" width="22" height="22" version="1">
 <path style="fill:#23c2c2" d="m 5.95,3 0,16 14.05,0 c 0.554,0 1,-0.446 1,-1 L 21,4 C 21,3.446 20.554,3 20,3 Z"/>
 <path style="fill:#cccccc" d="M 2,3 C 1.446,3 1,3.446 1,4 l 0,14 c 0,0.554 0.446,1 1,1 L 6,19 6,3 Z"/>
 <path d="M 2,3 C 1.446,3 1,3.446 1,4 l 0,0.5 c 0,-0.554 0.446,-1 1,-1 l 18,0 c 0.554,0 1,0.446 1,1 L 21,4 C 21,3.446 20.554,3 20,3 L 2,3 Z" style="opacity:0.2;fill:#ffffff"/>
 <path style="opacity:0.2" d="m 1,18 0,0.5 c 0,0.554 0.446,1 1,1 l 18,0 c 0.554,0 1,-0.446 1,-1 L 21,18 c 0,0.554 -0.446,1 -1,1 L 2,19 C 1.446,19 1,18.554 1,18 Z"/>
 <circle style="fill:#3f3f3f" cx="14" cy="11" r="5"/>
 <g style="opacity:0.2" transform="matrix(0.4494382,0,0,0.43537415,10.179955,7.7857145)">
  <g transform="translate(-293.0004,-128)">
   <path d="M 304.9375,131.9375 300,136.875 l -1.9375,-1.9375 -2.125,2.125 3,3 1.0625,1.0625 1.0625,-1.0625 6,-6 -2.125,-2.125 z"/>
  </g>
 </g>
 <g transform="matrix(0.4494382,0,0,0.43537415,10.179955,7.2857145)" style="fill:#ffffff">
  <g transform="translate(-293.0004,-128)" style="fill:#ffffff">
   <path style="fill:#ffffff" d="M 304.9375,131.9375 300,136.875 l -1.9375,-1.9375 -2.125,2.125 3,3 1.0625,1.0625 1.0625,-1.0625 6,-6 -2.125,-2.125 z"/>
  </g>
 </g>
 <rect style="opacity:0.1" width=".5" height="16" x="6" y="3"/>
</svg>
